X:1
T:Title
%%score { 1 | 2 }
L:1/8
Q:1/4=150
M:6/4
K:Eb
V:1 treble nm="Grand Piano"
V:2 bass 
V:1
 E4 E2 E4 G2 | [GB]4 [EG]2 [DF]2 E4 | c4 c2 B4 G2 | G4 E2 [DF]6 | G4 F2 E4 G2 | %5
w: H.~S.~Blunt * * *|||||
 [EGB]4 [B,EG]2 [A,DF]2 [G,E]4 | [B,DF]4 [Ec]2 B4 E2 |[M:15/8] [EG]3- [EG] [DF]2 E3- E6 | %8
w: |||
[M:6/4] c4 c2 c4 c2 | e4 c2 [Ac]2 [GB]4 | G4 G2 G4 E2 | [DF]4 [EG]2 [DF]6 | %12
w: ||||
 [EG]4 [GB]2 [GB]4 [Ge]2 | [Ae]4 [Ac]2 [Ac]2 [GB]4 | [GB]4 [B,EG]2 [B,EG]4 [G,E]2 | %15
w: |||
 [A,DF]4 [B,DG]2 [G,E]6 |] %16
w: |
V:2
 [E,G,B,]4 [E,G,B,]2 [E,G,B,]4 [E,B,E]2 | [E,E]4 [E,B,]2 [B,,A,]2 [E,G,]4 | %2
 [A,E]4 [A,E]2 [E,G,E]4 [E,B,E]2 | [E,B,E]4 [E,G,]2 [B,,B,]6 | %4
 [E,B,E]4 [E,A,B,]2 [E,G,B,]4 [E,B,E]2 | E,4 E,2 B,,2 E,4 | B,,4 [B,,A,]2 [E,G,E]4 [C,G,]2 | %7
[M:15/8] [B,,B,]3- [B,,B,] [B,,A,]2 [E,G,]3- [E,G,]6 | %8
[M:6/4][K:treble] [A,E]4 [A,E]2 [A,E]4 [A,E]2 | [A,CE]4 [A,EA]2[K:bass] [E,E]2 [E,E]4 | %10
 [E,B,E]4 [E,B,E]2 [E,B,E]4 [E,G,]2 | [B,,B,]4 [B,,B,]2 [B,,B,]6 | [E,B,]4 [E,E]2 [E,E]4 [E,B,]2 | %13
 [A,C]4 [A,E]2 [E,E]2 [E,E]4 | [E,E]4 E,2 E,4 E,2 | B,,4 B,,2 E,6 |] %16

